assets/svg/2708.svg

<svg xmlns="http://www.w3.org/2000/svg" viewBox="0 0 64 64" enable-background="new 0 0 64 64"><path fill="#677780" d="m26.967 10.907c-1.86 1.739-4.871 1.584-6.733-.34l0 0c-1.859-1.928-1.861-4.895-.004-6.634l2.915-2.725c1.858-1.735 4.873-1.583 6.731.342l0 0c1.861 1.93 1.863 4.897.002 6.636l-2.911 2.721"/><path fill="#96bfc9" d="m39.53 23.987l-30.929-14.24c0 0-8.553-12.506 34.19.063l-3.263 14.177"/><path fill="#6c8e99" d="m8.812 8.111l.403.143c8.966-1.888 25.785 2.383 34.727 5l1.188-4.055c-45.78-10.584-36.32-1.088-36.32-1.088"/><path fill="#677780" d="m51.27 35.957c-1.856 1.741-1.902 4.756-.104 6.741l0 0c1.803 1.981 4.764 2.181 6.62.438l2.909-2.727c1.857-1.741 1.9-4.762.102-6.743l0 0c-1.803-1.982-4.764-2.176-6.622-.437l-2.905 2.728"/><path fill="#96bfc9" d="m39.05 22.559l12.175 31.803c0 0 11.916 9.353 2.183-34.12l-14.358 2.322"/><path fill="#6c8e99" d="m52.867 54.26l-.117-.411c2.474-8.822-.684-25.886-2.703-34.982l4.123-.917c7.554 46.38-1.303 36.31-1.303 36.31"/><path fill="#96bfc9" d="m19.09 45.659l1.928 16.15c0 0 5.517 3.36 6.988-19.877l-8.916 3.724"/><path fill="#6c8e99" d="m22.02 61.48v-.219c2.941-5.457 3.914-14.687 4.229-19.552l2.599-1.211c-3.248 25.26-6.828 20.982-6.828 20.982"/><path fill="#96bfc9" d="m16.373 42.854l-15.991-2.984c0 0-2.992-5.723 20.294-5.667l-4.303 8.651"/><path fill="#6c8e99" d="m.781 38.901l.214.012c5.64-2.573 14.911-2.937 19.79-2.935l1.378-2.514c-25.417 1.583-21.382 5.437-21.382 5.437"/><path fill="#e8ebec" d="m59.41 15.275c2.502-2.345 6.338-10.345 3.628-13.241-2.713-2.897-10.947.405-13.451 2.752l-2.818 2.637c-.02.02-.033.046-.056.068-.014.012-.039.028-.052.04l-31.06 31.33c-1.45 1.358-5 7.776-3.064 9.786l.584.605c1.938 2.01 8.636-1.155 10.09-2.516l33.13-28.589c.036-.034.088-.097.127-.143.04-.036.088-.058.125-.093l2.818-2.636"/><path fill="#c0c5c8" d="m62.37 1.431c-3.226-1.835-10.413 1.135-12.724 3.302l-2.817 2.635c-.021.021-.035.047-.058.069-.014.012-.04.03-.054.04l-31.05 31.33c-1.452 1.357-5.01 7.775-3.068 9.785l.584.604c.353.365.866.557 1.473.622 9.115-11.895 32.999-41.775 47.717-48.39"/><g fill="#6c8e99"><path d="m9.344 53.3c-.449.419-2.254 1.656-2.538 1.366l-.086-.091c-.278-.292 1.068-2 1.515-2.419l8.96-11.497c.447-.417 4.084-.247 4.367.045l.083.088c.284.292.225 3.916-.22 4.335l-12.08 8.173"/><path d="m52.718 4.848c0 0 8.166-.872 6.964 7.21 0 0-1.134-5.635-6.964-7.21"/></g></svg>

<?xml version="1.0" encoding="utf-8"?>
<!-- Generator: Adobe Illustrator 16.0.0, SVG Export Plug-In . SVG Version: 6.00 Build 0)  -->
<!DOCTYPE svg PUBLIC "-//W3C//DTD SVG 1.1//EN" "http://www.w3.org/Graphics/SVG/1.1/DTD/svg11.dtd">
<svg version="1.1" id="Layer_1" xmlns="http://www.w3.org/2000/svg" xmlns:xlink="http://www.w3.org/1999/xlink" x="0px" y="0px"
	 width="64px" height="64px" viewBox="0 0 64 64" enable-background="new 0 0 64 64" xml:space="preserve">
<g>
	<path fill="#677780" d="M26.967,10.907c-1.86,1.739-4.871,1.584-6.733-0.34l0,0c-1.859-1.928-1.861-4.895-0.004-6.634l2.915-2.725
		c1.858-1.735,4.873-1.583,6.731,0.342l0,0c1.861,1.93,1.863,4.897,0.002,6.636L26.967,10.907z"/>
	<path fill="#96BFC9" d="M39.53,23.987L8.601,9.747c0,0-8.553-12.506,34.192,0.063L39.53,23.987z"/>
	<path fill="#6C8E99" d="M8.812,8.111l0.403,0.143c8.966-1.888,25.785,2.383,34.727,5l1.188-4.055
		C-0.65-1.385,8.812,8.111,8.812,8.111z"/>
	<path fill="#677780" d="M51.271,35.957c-1.856,1.741-1.902,4.756-0.104,6.741l0,0c1.803,1.981,4.764,2.181,6.62,0.438l2.909-2.727
		c1.857-1.741,1.9-4.762,0.102-6.743l0,0c-1.803-1.982-4.764-2.176-6.622-0.437L51.271,35.957z"/>
	<path fill="#96BFC9" d="M39.046,22.559l12.175,31.803c0,0,11.916,9.353,2.183-34.125L39.046,22.559z"/>
	<path fill="#6C8E99" d="M52.867,54.257l-0.117-0.411c2.474-8.822-0.684-25.886-2.703-34.982l4.123-0.917
		C61.724,64.323,52.867,54.257,52.867,54.257z"/>
	<path fill="#96BFC9" d="M19.092,45.659l1.928,16.153c0,0,5.517,3.36,6.988-19.877L19.092,45.659z"/>
	<path fill="#6C8E99" d="M22.015,61.479v-0.219c2.941-5.457,3.914-14.687,4.229-19.552l2.599-1.211
		C25.595,65.757,22.015,61.479,22.015,61.479z"/>
	<g>
		<path fill="#96BFC9" d="M16.373,42.854L0.382,39.87c0,0-2.992-5.723,20.294-5.667L16.373,42.854z"/>
		<path fill="#6C8E99" d="M0.781,38.901l0.214,0.012c5.64-2.573,14.911-2.937,19.79-2.935l1.378-2.514
			C-3.254,35.047,0.781,38.901,0.781,38.901z"/>
	</g>
	<path fill="#E8EBEC" d="M59.408,15.275C61.91,12.93,65.746,4.93,63.036,2.034c-2.713-2.897-10.947,0.405-13.451,2.752l-2.818,2.637
		c-0.02,0.02-0.033,0.046-0.056,0.068c-0.014,0.012-0.039,0.028-0.052,0.04L15.601,38.861c-1.45,1.358-5.004,7.776-3.064,9.786
		l0.584,0.605c1.938,2.008,8.636-1.155,10.091-2.516l33.126-28.589c0.036-0.034,0.088-0.097,0.127-0.143
		c0.04-0.036,0.088-0.058,0.125-0.093L59.408,15.275z"/>
	<path fill="#C0C5C8" d="M62.366,1.431C59.14-0.404,51.953,2.566,49.642,4.733l-2.817,2.635c-0.021,0.021-0.035,0.047-0.058,0.069
		c-0.014,0.012-0.04,0.03-0.054,0.04L15.66,38.811c-1.452,1.357-5.008,7.775-3.068,9.785l0.584,0.604
		c0.353,0.365,0.866,0.557,1.473,0.622C23.764,37.927,47.648,8.047,62.366,1.431z"/>
	<path fill="#6C8E99" d="M9.344,53.298c-0.449,0.419-2.254,1.656-2.538,1.366L6.72,54.573c-0.278-0.292,1.068-2.002,1.515-2.419
		l8.96-11.497c0.447-0.417,4.084-0.247,4.367,0.045l0.083,0.088c0.284,0.292,0.225,3.916-0.22,4.335L9.344,53.298z"/>
	<path fill="#6C8E99" d="M52.718,4.848c0,0,8.166-0.872,6.964,7.21C59.682,12.058,58.548,6.423,52.718,4.848z"/>
</g>
</svg>
